X: 2390
M: C
L: 1/8
K: Gm	% and Bb
uG,>A, |\
(3(cde) (3(ABc) (3(^FGA) D2 | (3(cde) (3(ABc) (3(^FGA) D2 |\
d>^cd>e (d<A) ze | d>cB>A G2 :|
|: F2 |\
f>=ef>g a>gf>e | d>cB>G (_G2 F2) |\
f>=ef>g a>g f2 | (3(agf) (3(edc) B2 :|


